images/web-standards-logo.svg

<svg width="40" height="40" viewBox="0 0 40 40" fill="none" xmlns="http://www.w3.org/2000/svg">
	<path d="M35.3153 22.0976C34.7928 22.0976 34.2916 21.8765 33.9221 21.4831C33.5526 21.0897 33.345 20.5561 33.345 19.9997V11.0487C33.345 10.4923 33.5526 9.95869 33.9221 9.56526C34.2916 9.17183 34.7928 8.95081 35.3153 8.95081C35.8379 8.95081 36.3391 9.17183 36.7086 9.56526C37.0781 9.95869 37.2857 10.4923 37.2857 11.0487V19.9997C37.2857 20.5561 37.0781 21.0897 36.7086 21.4831C36.3391 21.8765 35.8379 22.0976 35.3153 22.0976Z" fill="url(#paint0_linear)"/>
	<path d="M35.3128 13.1471C34.9792 13.1471 34.6511 13.0565 34.3596 12.8839L19.1878 3.93287C18.9615 3.79935 18.7621 3.61966 18.601 3.40408C18.4398 3.1885 18.3202 2.94125 18.2488 2.67644C18.1775 2.41163 18.1558 2.13443 18.1851 1.8607C18.2143 1.58697 18.2939 1.32205 18.4193 1.08108C18.5447 0.840103 18.7135 0.627788 18.916 0.456254C19.1184 0.28472 19.3507 0.157334 19.5994 0.0813561C19.8481 0.0053786 20.1084 -0.0176962 20.3655 0.0134497C20.6226 0.0445955 20.8714 0.129345 21.0978 0.262872L36.2695 9.21385C36.6516 9.43935 36.9525 9.79365 37.1249 10.2211C37.2973 10.6485 37.3314 11.1247 37.2219 11.575C37.1123 12.0253 36.8654 12.4241 36.5198 12.7086C36.1742 12.9932 35.7497 13.1475 35.3128 13.1471V13.1471Z" fill="url(#paint1_linear)"/>
	<path d="M4.97229 13.1471C4.53542 13.1475 4.11083 12.9932 3.76525 12.7086C3.41968 12.4241 3.17272 12.0253 3.06319 11.575C2.95366 11.1247 2.98776 10.6485 3.16015 10.2211C3.33253 9.79365 3.63342 9.43935 4.01552 9.21385L19.1873 0.262872C19.4136 0.129345 19.6624 0.0445955 19.9195 0.0134497C20.1766 -0.0176962 20.437 0.0053786 20.6857 0.0813561C20.9344 0.157334 21.1666 0.28472 21.3691 0.456254C21.5716 0.627788 21.7403 0.840103 21.8657 1.08108C21.9912 1.32205 22.0708 1.58697 22.1 1.8607C22.1293 2.13443 22.1076 2.41163 22.0362 2.67644C21.9649 2.94125 21.8452 3.1885 21.6841 3.40408C21.523 3.61966 21.3236 3.79935 21.0973 3.93287L5.92549 12.8839C5.63395 13.0565 5.30588 13.1471 4.97229 13.1471Z" fill="url(#paint2_linear)"/>
	<path d="M20.1404 22.098C19.8068 22.098 19.4787 22.0074 19.1871 21.8347L4.01537 12.8837C3.78904 12.7502 3.58963 12.5705 3.42853 12.355C3.26742 12.1394 3.14777 11.8921 3.07641 11.6273C3.00505 11.3625 2.98338 11.0853 3.01263 10.8116C3.04188 10.5378 3.12149 10.2729 3.2469 10.0319C3.37231 9.79097 3.54107 9.57865 3.74355 9.40712C3.94602 9.23559 4.17825 9.1082 4.42697 9.03222C4.67569 8.95625 4.93602 8.93317 5.19311 8.96432C5.45021 8.99546 5.69902 9.08021 5.92534 9.21374L21.0971 18.1647C21.4792 18.3902 21.7801 18.7445 21.9525 19.1719C22.1249 19.5993 22.159 20.0756 22.0495 20.5259C21.9399 20.9762 21.693 21.375 21.3474 21.6595C21.0018 21.9441 20.5772 22.0983 20.1404 22.098V22.098Z" fill="url(#paint3_linear)"/>
	<path d="M20.1428 39.9999C19.6202 39.9999 19.119 39.7789 18.7495 39.3855C18.38 38.9921 18.1724 38.4585 18.1724 37.9021V20.0001C18.1724 19.4437 18.38 18.9101 18.7495 18.5167C19.119 18.1233 19.6202 17.9022 20.1428 17.9022C20.6654 17.9022 21.1665 18.1233 21.536 18.5167C21.9056 18.9101 22.1131 19.4437 22.1131 20.0001V37.9021C22.1131 38.4585 21.9056 38.9921 21.536 39.3855C21.1665 39.7789 20.6654 39.9999 20.1428 39.9999V39.9999Z" fill="url(#paint4_linear)"/>
	<path d="M20.144 40C19.7071 40.0003 19.2825 39.8461 18.9369 39.5615C18.5914 39.2769 18.3444 38.8782 18.2349 38.4279C18.1253 37.9776 18.1595 37.5013 18.3318 37.0739C18.5042 36.6465 18.8051 36.2922 19.1872 36.0667L34.359 27.1157C34.8161 26.8461 35.3551 26.7808 35.8574 26.9342C36.3597 27.0876 36.7842 27.4473 37.0374 27.9339C37.2907 28.4206 37.352 28.9945 37.2079 29.5293C37.0638 30.0641 36.7261 30.5161 36.269 30.7857L21.0972 39.7367C20.8057 39.9093 20.4776 39.9999 20.144 40V40Z" fill="url(#paint5_linear)"/>
	<path d="M20.1404 40C19.8068 40 19.4787 39.9093 19.1871 39.7367L4.01537 30.7857C3.78904 30.6522 3.58963 30.4725 3.42853 30.2569C3.26742 30.0413 3.14777 29.7941 3.07641 29.5293C3.00505 29.2645 2.98338 28.9873 3.01263 28.7136C3.04188 28.4398 3.12149 28.1749 3.2469 27.9339C3.37231 27.6929 3.54107 27.4806 3.74355 27.3091C3.94602 27.1376 4.17825 27.0102 4.42697 26.9342C4.67569 26.8582 4.93602 26.8351 5.19311 26.8663C5.45021 26.8974 5.69902 26.9822 5.92534 27.1157L21.0971 36.0667C21.4792 36.2922 21.7801 36.6465 21.9525 37.0739C22.1249 37.5013 22.159 37.9776 22.0495 38.4279C21.9399 38.8781 21.693 39.2769 21.3474 39.5615C21.0018 39.8461 20.5772 40.0003 20.1404 40Z" fill="url(#paint6_linear)"/>
	<path d="M4.97036 31.0489C4.44779 31.0489 3.94662 30.8279 3.57711 30.4345C3.20759 30.041 3 29.5074 3 28.951V20C3 19.4437 3.20759 18.9101 3.57711 18.5166C3.94662 18.1232 4.44779 17.9022 4.97036 17.9022C5.49293 17.9022 5.9941 18.1232 6.36362 18.5166C6.73313 18.9101 6.94072 19.4437 6.94072 20V28.951C6.94072 29.5074 6.73313 30.041 6.36362 30.4345C5.9941 30.8279 5.49293 31.0489 4.97036 31.0489V31.0489Z" fill="url(#paint7_linear)"/>
	<defs>
	<linearGradient id="paint0_linear" x1="35.3153" y1="19.9997" x2="35.3153" y2="11.0487" gradientUnits="userSpaceOnUse">
		<stop stop-color="#C6F523"/>
		<stop offset="0.9" stop-color="#AFE63A"/>
	</linearGradient>
	<linearGradient id="paint1_linear" x1="35.3146" y1="11.0489" x2="19.7107" y2="2.92813" gradientUnits="userSpaceOnUse">
		<stop stop-color="#AFE63A"/>
		<stop offset="0.9" stop-color="#81C36D"/>
	</linearGradient>
	<linearGradient id="paint2_linear" x1="20.1423" y1="2.09788" x2="4.53843" y2="10.2186" gradientUnits="userSpaceOnUse">
		<stop stop-color="#81C36D"/>
		<stop offset="0.8" stop-color="#61AFB4"/>
	</linearGradient>
	<linearGradient id="paint3_linear" x1="4.97036" y1="11.0488" x2="20.5742" y2="19.1695" gradientUnits="userSpaceOnUse">
		<stop stop-color="#61AFB4"/>
		<stop offset="0.9" stop-color="#42A0DA"/>
	</linearGradient>
	<linearGradient id="paint4_linear" x1="20.1428" y1="20.0001" x2="20.1428" y2="37.9021" gradientUnits="userSpaceOnUse">
		<stop stop-color="#42A0DA"/>
		<stop offset="0.8" stop-color="#3B84BB"/>
	</linearGradient>
	<linearGradient id="paint5_linear" x1="35.314" y1="28.9507" x2="19.7101" y2="37.0714" gradientUnits="userSpaceOnUse">
		<stop stop-color="#386D9B"/>
		<stop offset="0.7" stop-color="#3B84BB"/>
	</linearGradient>
	<linearGradient id="paint6_linear" x1="20.1421" y1="37.9017" x2="4.53827" y2="29.781" gradientUnits="userSpaceOnUse">
		<stop offset="0.3" stop-color="#3B84BB"/>
		<stop offset="0.9" stop-color="#366FA5"/>
	</linearGradient>
	<linearGradient id="paint7_linear" x1="4.97036" y1="28.951" x2="4.97036" y2="20" gradientUnits="userSpaceOnUse">
		<stop stop-color="#366FA5"/>
		<stop offset="1" stop-color="#366998"/>
	</linearGradient>
	</defs>
</svg>

<svg width="40" height="40" fill="none" xmlns="http://www.w3.org/2000/svg"><path d="M35.315 22.098a1.912 1.912 0 01-1.393-.615A2.169 2.169 0 0133.345 20v-8.951c0-.557.208-1.09.577-1.484.37-.393.87-.614 1.393-.614s1.024.22 1.394.614c.37.394.577.927.577 1.484v8.95c0 .557-.208 1.09-.577 1.484-.37.393-.871.615-1.394.615z" fill="url(#paint0_linear)"/><path d="M35.313 13.147c-.334 0-.662-.09-.953-.263L19.188 3.933a2.008 2.008 0 01-.587-.529 2.149 2.149 0 01-.352-.728 2.229 2.229 0 01.17-1.595 2.07 2.07 0 01.497-.625 1.93 1.93 0 01.683-.375 1.855 1.855 0 011.499.182l15.172 8.95c.382.226.682.58.855 1.008.172.428.206.904.097 1.354-.11.45-.357.85-.702 1.134-.346.284-.77.439-1.207.438z" fill="url(#paint1_linear)"/><path d="M4.972 13.147a1.9 1.9 0 01-1.207-.438 2.112 2.112 0 01-.702-1.134c-.11-.45-.075-.926.097-1.354.173-.427.473-.782.856-1.007L19.187.263A1.856 1.856 0 0120.685.08c.25.076.482.204.684.375.203.172.371.384.497.625a2.227 2.227 0 01.17 1.595 2.149 2.149 0 01-.352.728 2 2 0 01-.587.529l-15.172 8.95c-.291.174-.62.264-.953.264z" fill="url(#paint2_linear)"/><path d="M20.14 22.098c-.333 0-.661-.09-.953-.263L4.015 12.884a2.008 2.008 0 01-.586-.529 2.15 2.15 0 01-.353-.728 2.228 2.228 0 01.17-1.595 2.07 2.07 0 01.498-.625 1.93 1.93 0 01.683-.375 1.856 1.856 0 011.498.182l15.172 8.95c.382.226.683.58.855 1.008.173.427.207.904.097 1.354-.11.45-.356.849-.702 1.134-.345.284-.77.438-1.207.438z" fill="url(#paint3_linear)"/><path d="M20.143 40a1.912 1.912 0 01-1.393-.614 2.169 2.169 0 01-.578-1.484V20c0-.556.208-1.09.578-1.483.369-.394.87-.615 1.393-.615.522 0 1.023.221 1.393.615.37.393.577.927.577 1.483v17.902c0 .556-.207 1.09-.577 1.483a1.91 1.91 0 01-1.393.615z" fill="url(#paint4_linear)"/><path d="M20.144 40a1.9 1.9 0 01-1.207-.438 2.112 2.112 0 01-.702-1.134c-.11-.45-.075-.927.097-1.354.172-.427.473-.782.855-1.007l15.172-8.951c.457-.27.996-.335 1.498-.182.503.154.927.513 1.18 1a2.21 2.21 0 01.17 1.595 2.08 2.08 0 01-.938 1.257l-15.172 8.95a1.87 1.87 0 01-.953.264z" fill="url(#paint5_linear)"/><path d="M20.14 40a1.87 1.87 0 01-.953-.263L4.015 30.786a2.007 2.007 0 01-.586-.53 2.15 2.15 0 01-.353-.727 2.228 2.228 0 01.17-1.595 2.07 2.07 0 01.498-.625 1.93 1.93 0 01.683-.375 1.854 1.854 0 011.498.182l15.172 8.95c.382.226.683.58.855 1.008.173.427.207.904.097 1.354-.11.45-.356.849-.702 1.134-.345.284-.77.438-1.207.438z" fill="url(#paint6_linear)"/><path d="M4.97 31.049a1.912 1.912 0 01-1.393-.614A2.169 2.169 0 013 28.95V20c0-.556.208-1.09.577-1.483.37-.394.87-.615 1.393-.615s1.024.221 1.394.615c.37.393.577.927.577 1.483v8.951a2.17 2.17 0 01-.577 1.483c-.37.394-.871.615-1.394.615z" fill="url(#paint7_linear)"/><defs><linearGradient id="paint0_linear" x1="35.315" y1="20" x2="35.315" y2="11.049" gradientUnits="userSpaceOnUse"><stop stop-color="#C6F523"/><stop offset=".9" stop-color="#AFE63A"/></linearGradient><linearGradient id="paint1_linear" x1="35.315" y1="11.049" x2="19.711" y2="2.928" gradientUnits="userSpaceOnUse"><stop stop-color="#AFE63A"/><stop offset=".9" stop-color="#81C36D"/></linearGradient><linearGradient id="paint2_linear" x1="20.142" y1="2.098" x2="4.538" y2="10.219" gradientUnits="userSpaceOnUse"><stop stop-color="#81C36D"/><stop offset=".8" stop-color="#61AFB4"/></linearGradient><linearGradient id="paint3_linear" x1="4.97" y1="11.049" x2="20.574" y2="19.169" gradientUnits="userSpaceOnUse"><stop stop-color="#61AFB4"/><stop offset=".9" stop-color="#42A0DA"/></linearGradient><linearGradient id="paint4_linear" x1="20.143" y1="20" x2="20.143" y2="37.902" gradientUnits="userSpaceOnUse"><stop stop-color="#42A0DA"/><stop offset=".8" stop-color="#3B84BB"/></linearGradient><linearGradient id="paint5_linear" x1="35.314" y1="28.951" x2="19.71" y2="37.071" gradientUnits="userSpaceOnUse"><stop stop-color="#386D9B"/><stop offset=".7" stop-color="#3B84BB"/></linearGradient><linearGradient id="paint6_linear" x1="20.142" y1="37.902" x2="4.538" y2="29.781" gradientUnits="userSpaceOnUse"><stop offset=".3" stop-color="#3B84BB"/><stop offset=".9" stop-color="#366FA5"/></linearGradient><linearGradient id="paint7_linear" x1="4.97" y1="28.951" x2="4.97" y2="20" gradientUnits="userSpaceOnUse"><stop stop-color="#366FA5"/><stop offset="1" stop-color="#366998"/></linearGradient></defs></svg>
